Numix-Circle/48x48/apps/gnome-mplayer.svg

<?xml version="1.0" encoding="UTF-8" standalone="no"?>
<svg
   xmlns:dc="http://purl.org/dc/elements/1.1/"
   xmlns:cc="http://creativecommons.org/ns#"
   xmlns:rdf="http://www.w3.org/1999/02/22-rdf-syntax-ns#"
   xmlns:svg="http://www.w3.org/2000/svg"
   xmlns="http://www.w3.org/2000/svg"
   xmlns:xlink="http://www.w3.org/1999/xlink"
   xmlns:sodipodi="http://sodipodi.sourceforge.net/DTD/sodipodi-0.dtd"
   xmlns:inkscape="http://www.inkscape.org/namespaces/inkscape"
   width="48"
   viewBox="0 0 13.546667 13.546667"
   height="48"
   id="svg2"
   version="1.1"
   inkscape:version="0.91 r13725"
   sodipodi:docname="gnome-mplayer.svg">
  <metadata
     id="metadata331">
    <rdf:RDF>
      <cc:Work
         rdf:about="">
        <dc:format>image/svg+xml</dc:format>
        <dc:type
           rdf:resource="http://purl.org/dc/dcmitype/StillImage" />
        <dc:title />
      </cc:Work>
    </rdf:RDF>
  </metadata>
  <sodipodi:namedview
     pagecolor="#ffffff"
     bordercolor="#666666"
     borderopacity="1"
     objecttolerance="10"
     gridtolerance="10"
     guidetolerance="10"
     inkscape:pageopacity="0"
     inkscape:pageshadow="2"
     inkscape:window-width="1920"
     inkscape:window-height="1023"
     id="namedview329"
     showgrid="true"
     inkscape:zoom="9.147403"
     inkscape:cx="18.297864"
     inkscape:cy="26.268698"
     inkscape:window-x="0"
     inkscape:window-y="28"
     inkscape:window-maximized="1"
     inkscape:current-layer="layer3">
    <inkscape:grid
       type="xygrid"
       id="grid3308" />
  </sodipodi:namedview>
  <defs
     id="defs4">
    <linearGradient
       inkscape:collect="always"
       xlink:href="#linearGradient3764"
       id="linearGradient5371"
       gradientUnits="userSpaceOnUse"
       x1="-25.499998"
       y1="15"
       x2="-25.499998"
       y2="11" />
    <linearGradient
       id="linearGradient3764"
       x1="1"
       x2="47"
       gradientUnits="userSpaceOnUse"
       gradientTransform="matrix(0,-1,1,0,-1.5e-6,47.999998)">
      <stop
         stop-color="#e4e4e4"
         stop-opacity="1"
         id="stop7-04" />
      <stop
         offset="1"
         stop-color="#eee"
         stop-opacity="1"
         id="stop9-04" />
    </linearGradient>
  </defs>
  <g
     inkscape:groupmode="layer"
     id="layer1"
     inkscape:label="Shadow"
     sodipodi:insensitive="true">
    <path
       style="opacity:0.05;fill:#000000;fill-opacity:1;stroke:none"
       d="M 25,2 C 12.297451,2 2,12.297451 2,25 2,31.367153 4.6007106,37.116628 8.78125,41.28125 12.865755,44.99361 18.29568,47.25 24.25,47.25 c 12.702549,0 23,-10.297451 23,-23 0,-5.95432 -2.25639,-11.384245 -5.96875,-15.46875 C 37.116628,4.6007105 31.367153,2 25,2 z M 41.28125,8.78125 C 45.135604,12.894061 47.5,18.418655 47.5,24.5 c 0,12.702549 -10.297451,23 -23,23 C 18.418655,47.5 12.894061,45.135604 8.78125,41.28125 12.940939,45.4251 18.664604,48 25,48 37.702549,48 48,37.702549 48,25 48,18.664604 45.4251,12.940939 41.28125,8.78125 z"
       transform="scale(0.28222223,0.28222223)"
       id="path3978"
       inkscape:connector-curvature="0" />
    <path
       style="opacity:0.1;fill:#000000;fill-opacity:1;stroke:none"
       d="M 41.28125,8.78125 C 44.99361,12.865755 47.25,18.29568 47.25,24.25 c 0,12.702549 -10.297451,23 -23,23 -5.95432,0 -11.384245,-2.25639 -15.46875,-5.96875 C 12.894061,45.135604 18.418655,47.5 24.5,47.5 c 12.702549,0 23,-10.297451 23,-23 0,-6.081345 -2.364396,-11.605939 -6.21875,-15.71875 z"
       transform="scale(0.28222223,0.28222223)"
       id="path3976"
       inkscape:connector-curvature="0" />
    <path
       transform="matrix(4.3274074,0,0,3.2455556,117.19278,-35.348334)"
       d="m -24,13 a 1.5,2 0 1 1 -3,0 1.5,2 0 1 1 3,0 z"
       sodipodi:ry="2"
       sodipodi:rx="1.5"
       sodipodi:cy="13"
       sodipodi:cx="-25.5"
       id="path3952"
       style="opacity:0.2;fill:#000000;fill-opacity:1;stroke:none"
       sodipodi:type="arc" />
  </g>
  <g
     inkscape:groupmode="layer"
     id="layer2"
     inkscape:label="Base">
    <path
       sodipodi:type="arc"
       style="opacity:1;fill:url(#linearGradient5371);fill-opacity:1.0;stroke:none"
       id="path3942"
       sodipodi:cx="-25.5"
       sodipodi:cy="13"
       sodipodi:rx="1.5"
       sodipodi:ry="2"
       d="m -24,13 a 1.5,2 0 1 1 -3,0 1.5,2 0 1 1 3,0 z"
       transform="matrix(4.3274075,0,0,3.2455556,117.12222,-35.418889)" />
    <path
       style="opacity:0.1;fill:#000000;fill-opacity:1;stroke:none"
       d="M 40.03125 7.53125 C 43.74361 11.615755 46 17.04568 46 23 C 46 35.702549 35.702549 46 23 46 C 17.04568 46 11.615755 43.74361 7.53125 40.03125 C 11.709416 44.322508 17.537578 47 24 47 C 36.702549 47 47 36.702549 47 24 C 47 17.537578 44.322508 11.709416 40.03125 7.53125 z "
       id="path4027"
       transform="scale(0.28222223,0.28222223)" />
  </g>
  <g
     inkscape:groupmode="layer"
     id="layer3"
     inkscape:label="Symbol">
    <g
       id="g4984"
       style="fill:#000000;fill-opacity:1;opacity:0.1"
       transform="translate(0.28222219,0.28222217)">
      <path
         id="path4980"
         d="m 6.7875859,2.5400008 c -2.326153,0 -4.2475858,1.8929276 -4.2475858,4.2190807 0,2.3261524 1.921715,4.2475855 4.2475858,4.2475855 2.3272822,0 4.2190811,-1.9205861 4.2190811,-4.2475855 0,-2.3261531 -1.8917989,-4.2190807 -4.2190811,-4.2190807 m 0,0.8269387 c 1.8796627,0 3.3924241,1.5136082 3.3924241,3.3924242 0,1.8785342 -1.5124791,3.4206473 -3.3924241,3.4206473 -1.8785336,0 -3.4206473,-1.5423961 -3.4206473,-3.4206473 0,-1.8785338 1.5423959,-3.3924242 3.4206473,-3.3924242 m 0,0"
         inkscape:connector-curvature="0"
         style="fill:#000000;fill-opacity:1;fill-rule:nonzero;stroke:none" />
      <path
         id="path4982"
         d="m 5.3622223,4.2333339 0,5.08 4.2333334,-2.5402689"
         inkscape:connector-curvature="0"
         style="fill:#000000;fill-opacity:1;fill-rule:nonzero;stroke:none"
         sodipodi:nodetypes="ccc" />
    </g>
    <path
       id="path70"
       d="m 6.7875859,2.5400008 c -2.326153,0 -4.2475858,1.8929276 -4.2475858,4.2190807 0,2.3261524 1.921715,4.2475855 4.2475858,4.2475855 2.3272822,0 4.2190811,-1.9205861 4.2190811,-4.2475855 0,-2.3261531 -1.8917989,-4.2190807 -4.2190811,-4.2190807 m 0,0.8269387 c 1.8796627,0 3.3924241,1.5136082 3.3924241,3.3924242 0,1.8785342 -1.5124791,3.4206473 -3.3924241,3.4206473 -1.8785336,0 -3.4206473,-1.5423961 -3.4206473,-3.4206473 0,-1.8785338 1.5423959,-3.3924242 3.4206473,-3.3924242 m 0,0"
       inkscape:connector-curvature="0"
       style="fill:#34b5da;fill-opacity:1;fill-rule:nonzero;stroke:none" />
    <path
       id="path72"
       d="m 5.3622223,4.2333339 0,5.08 4.2333334,-2.5402689"
       inkscape:connector-curvature="0"
       style="fill:#2d2d2d;fill-opacity:1;fill-rule:nonzero;stroke:none"
       sodipodi:nodetypes="ccc" />
  </g>
</svg>

<svg xmlns="http://www.w3.org/2000/svg" width="48" viewBox="0 0 13.546667 13.546667" height="48">
 <defs>
  <linearGradient id="linearGradient5371" gradientUnits="userSpaceOnUse" y1="15" x2="0" y2="11">
   <stop style="stop-color:#e4e4e4;stop-opacity:1"/>
   <stop offset="1" style="stop-color:#eee;stop-opacity:1"/>
  </linearGradient>
 </defs>
 <g>
  <path d="m 25 2 c -12.703 0 -23 10.297 -23 23 0 6.367 2.601 12.12 6.781 16.281 4.085 3.712 9.514 5.969 15.469 5.969 c 12.703 0 23 -10.297 23 -23 0 -5.954 -2.256 -11.384 -5.969 -15.469 c -4.165 -4.181 -9.914 -6.781 -16.281 -6.781 z m 16.281 6.781 c 3.854 4.113 6.219 9.637 6.219 15.719 c 0 12.703 -10.297 23 -23 23 c -6.081 0 -11.606 -2.364 -15.719 -6.219 4.16 4.144 9.883 6.719 16.219 6.719 12.703 0 23 -10.297 23 -23 0 -6.335 -2.575 -12.06 -6.719 -16.219 z" transform="scale(0.28222223,0.28222223)" style="fill:#000;opacity:0.05;fill-opacity:1;stroke:none"/>
  <path d="m 41.28 8.781 c 3.712 4.085 5.969 9.514 5.969 15.469 c 0 12.703 -10.297 23 -23 23 -5.954 0 -11.384 -2.256 -15.469 -5.969 c 4.113 3.854 9.637 6.219 15.719 6.219 c 12.703 0 23 -10.297 23 -23 0 -6.081 -2.364 -11.606 -6.219 -15.719 z" transform="scale(0.28222223,0.28222223)" style="fill:#000;opacity:0.1;fill-opacity:1;stroke:none"/>
  <path transform="matrix(4.3274074,0,0,3.2455556,117.19278,-35.348334)" d="m -24 13 a 1.5 2 0 1 1 -3 0 1.5 2 0 1 1 3 0 z" style="fill:#000;opacity:0.2;fill-opacity:1;stroke:none"/>
 </g>
 <g>
  <path d="m -24 13 a 1.5 2 0 1 1 -3 0 1.5 2 0 1 1 3 0 z" transform="matrix(4.3274075,0,0,3.2455556,117.12222,-35.418889)" style="fill:url(#linearGradient5371);opacity:1;fill-opacity:1;stroke:none"/>
  <path d="m 40.03 7.531 c 3.712 4.085 5.969 9.514 5.969 15.469 c 0 12.703 -10.297 23 -23 23 c -5.954 0 -11.384 -2.256 -15.469 -5.969 c 4.178 4.291 10.01 6.969 16.469 6.969 c 12.703 0 23 -10.297 23 -23 c 0 -6.462 -2.677 -12.291 -6.969 -16.469 z" transform="scale(0.28222223,0.28222223)" style="fill:#000;opacity:0.1;fill-opacity:1;stroke:none"/>
 </g>
 <g>
  <g transform="translate(0.28222219,0.28222217)" style="fill:#000;opacity:0.1;fill-opacity:1">
   <path d="m 6.788 2.54 c -2.326 0 -4.248 1.893 -4.248 4.219 0 2.326 1.922 4.248 4.248 4.248 2.327 0 4.219 -1.921 4.219 -4.248 0 -2.326 -1.892 -4.219 -4.219 -4.219 m 0 0.827 c 1.88 0 3.392 1.514 3.392 3.392 0 1.879 -1.512 3.421 -3.392 3.421 -1.879 0 -3.421 -1.542 -3.421 -3.421 0 -1.879 1.542 -3.392 3.421 -3.392 m 0 0" style="stroke:none;fill-rule:nonzero"/>
   <path d="m 5.362 4.233 0 5.08 4.233 -2.54" style="stroke:none;fill-rule:nonzero"/>
  </g>
  <path d="m 6.788 2.54 c -2.326 0 -4.248 1.893 -4.248 4.219 0 2.326 1.922 4.248 4.248 4.248 2.327 0 4.219 -1.921 4.219 -4.248 0 -2.326 -1.892 -4.219 -4.219 -4.219 m 0 0.827 c 1.88 0 3.392 1.514 3.392 3.392 0 1.879 -1.512 3.421 -3.392 3.421 -1.879 0 -3.421 -1.542 -3.421 -3.421 0 -1.879 1.542 -3.392 3.421 -3.392 m 0 0" style="fill:#34b5da;fill-opacity:1;stroke:none;fill-rule:nonzero"/>
  <path d="m 5.362 4.233 0 5.08 4.233 -2.54" style="fill:#2d2d2d;fill-opacity:1;stroke:none;fill-rule:nonzero"/>
 </g>
</svg>
